X: 1
T: Tamo daleko    [Gm]
%T:Тамо далеко
O: Serbia %(Србија)
R: waltz
Z: 2008 John Chambers <jc:trillian.mit.edu>
N: There is a lot of variation in the lyrics.
M: 3/4
L: 1/4
K: Gm
|: "Gm"DGB | dcB | d3- | "D7"d3 | "Gm"DGB | dcB | "D7"A3- | A3 || "Cm"ccc | cBA |
| "Cm"c3- | e3 | "Gm"ded | "D7"cBA | "Gm"G3- | G3 :: "Gm"G3  | D2G | "D7"(B2A) | "Gm"G2"F7"F | "Bb"d2d |
| "F7"(cd)e | "Bb"d3- | "D7"d3 || "Gm"GAB | (dc)B | "Cm"(c2B) | "D7"A3 | "D7"ded | cBA | "Gm"G3- | G3 :|
